;FLAVOR:Marlin
;TIME:5383
;Filament used: 2.84169m
;Layer height: 0.2
;MINX:53.5
;MINY:46.637
;MINZ:0.2
;MAXX:166.5
;MAXY:164.609
;MAXZ:10
;TARGET_MACHINE.NAME:Creality Ender-3 Pro
;Generated with Cura_SteamEngine 5.8.1
M82 ;absolute extrusion mode
; Ender 3 Custom Start G-code
G92 E0 ; Reset Extruder
G28 ; Home all axes
G1 Z5.0 F3000 ; Move Z Axis up a bit during heating to not damage bed
M104 S175 ; Start heating up the nozzle most of the way
M190 S60 ; Start heating the bed, wait until target temperature reached
M109 S200 ; Finish heating the nozzle
G1 Z2.0 F3000 ; Move Z Axis up little to prevent scratching of Heat Bed
G1 X0.1 Y20 Z0.3 F5000.0 ; Move to start position
G1 X0.1 Y200.0 Z0.3 F1500.0 E15 ; Draw the first line
G1 X0.4 Y200.0 Z0.3 F5000.0 ; Move to side a little
G1 X0.4 Y20 Z0.3 F1500.0 E30 ; Draw the second line
G92 E0 ; Reset Extruder
G1 Z2.0 F3000 ; Move Z Axis up little to prevent scratching of Heat Bed
G1 X5 Y20 Z0.3 F5000.0 ; Move over to prevent blob squish
G92 E0
G92 E0
G1 F1500 E-6.5
;LAYER_COUNT:50
;LAYER:0
M107
G0 F6000 X56.969 Y60.246 Z0.2
;TYPE:SKIRT
G1 F1500 E0
G1 F1200 X57.679 Y59.632 E0.03122
G1 X58.498 Y59.042 E0.06479
G1 X59.337 Y58.546 E0.09721
G1 X60.151 Y58.155 E0.12724
G1 X61.14 Y57.784 E0.16238
G1 X62.359 Y57.467 E0.20427
G1 X63.982 Y57.143 E0.25932
G1 X66.477 Y56.598 E0.34426
G1 X68.906 Y55.998 E0.42747
G1 X71.326 Y55.322 E0.51104
G1 X73.768 Y54.567 E0.59606
G1 X76.146 Y53.758 E0.6796
G1 X78.519 Y52.874 E0.76383
G1 X80.832 Y51.938 E0.84682
G1 X83.122 Y50.933 E0.93
G1 X85.409 Y49.855 E1.01409
G1 X88 Y48.536 E1.11079
G1 X88.836 Y48.099 E1.14217
G1 X89.264 Y47.889 E1.15802
G1 X90.091 Y47.528 E1.18804
G1 X91.088 Y47.196 E1.22299
G1 X92.135 Y46.955 E1.25872
G1 X93.056 Y46.8 E1.28978
G1 X93.511 Y46.737 E1.30506
G1 X94.476 Y46.647 E1.3373
G1 X95.286 Y46.637 E1.36424
G1 X95.807 Y46.65 E1.38157
G1 X97.59 Y46.723 E1.44093
G1 X100.09 Y46.755 E1.52408
G1 X102.612 Y46.715 E1.60797
G1 X103.848 Y46.662 E1.64912
G1 X104.714 Y46.638 E1.67794
G1 X105.285 Y46.637 E1.69693
G1 X105.807 Y46.65 E1.7143
G1 X107.59 Y46.723 E1.77365
G1 X110.09 Y46.755 E1.8568
G1 X112.612 Y46.715 E1.9407
G1 X113.848 Y46.662 E1.98184
G1 X114.714 Y46.638 E2.01066
G1 X115.285 Y46.637 E2.02965
G1 X115.807 Y46.65 E2.04702
G1 X117.59 Y46.723 E2.10637
G1 X120.09 Y46.755 E2.18953
G1 X122.612 Y46.715 E2.27342
G1 X123.848 Y46.662 E2.31457
G1 X124.714 Y46.638 E2.34338
G1 X125.285 Y46.637 E2.36237
G1 X125.807 Y46.65 E2.37974
G1 X127.59 Y46.723 E2.43909
G1 X130.09 Y46.755 E2.52225
G1 X132.612 Y46.715 E2.60614
G1 X133.84 Y46.662 E2.64702
G1 X134.703 Y46.638 E2.67574
G1 X135.673 Y46.656 E2.70801
G1 X136.54 Y46.744 E2.73699
G1 X137.386 Y46.87 E2.76544
G1 X137.816 Y46.944 E2.77995
G1 X138.768 Y47.154 E2.81238
G1 X139.63 Y47.424 E2.84242
G1 X140.749 Y47.897 E2.88283
G1 X141.227 Y48.13 E2.90051
G1 X141.937 Y48.502 E2.92717
G1 X142.836 Y49.035 E2.96193
G1 X145.076 Y50.517 E3.05127
G1 X147.204 Y51.84 E3.13461
G1 X149.413 Y53.128 E3.21966
G1 X151.602 Y54.322 E3.30259
G1 X153.845 Y55.465 E3.38632
G1 X156.088 Y56.53 E3.4689
G1 X158.463 Y57.575 E3.55521
G1 X159.748 Y58.11 E3.6015
G1 X160.629 Y58.527 E3.63392
G1 X161.468 Y59.019 E3.66627
G1 X162.263 Y59.584 E3.69871
G1 X162.977 Y60.193 E3.72992
G1 X163.684 Y60.913 E3.76348
G1 X164.3 Y61.666 E3.79584
G1 X164.849 Y62.471 E3.82825
G1 X165.324 Y63.322 E3.86066
G1 X165.721 Y64.21 E3.89302
G1 X166.038 Y65.131 E3.92541
G1 X166.273 Y66.077 E3.95783
G1 X166.423 Y67.038 E3.99018
G1 X166.487 Y67.951 E4.02062
G1 X166.5 Y68.575 E4.04138
G1 X166.499 Y74.686 E4.24464
G1 X166.486 Y75.448 E4.26998
G1 X166.426 Y76.419 E4.30234
G1 X166.293 Y77.312 E4.33237
G1 X166.007 Y78.466 E4.37191
G1 X165.465 Y80.205 E4.4325
G1 X164.768 Y82.6 E4.51546
G1 X164.124 Y85.073 E4.60046
G1 X163.568 Y87.488 E4.68288
G1 X163.063 Y90 E4.7681
G1 X162.641 Y92.46 E4.85112
G1 X162.293 Y94.904 E4.93322
G1 X162.005 Y97.442 E5.01818
G1 X161.788 Y99.96 E5.10224
G1 X161.649 Y102.42 E5.18419
G1 X161.576 Y104.984 E5.2695
G1 X161.576 Y107.496 E5.35305
G1 X161.647 Y110.008 E5.43664
G1 X161.787 Y112.492 E5.51938
G1 X162.003 Y115.063 E5.6052
G1 X162.283 Y117.523 E5.68755
G1 X162.632 Y119.985 E5.77025
G1 X163.06 Y122.49 E5.85478
G1 X163.548 Y124.926 E5.93741
G1 X164.12 Y127.42 E6.02251
G1 X164.75 Y129.841 E6.10572
G1 X165.468 Y132.314 E6.19136
G1 X165.99 Y133.969 E6.24908
G1 X166.232 Y134.877 E6.28034
G1 X166.404 Y135.875 E6.31402
G1 X166.485 Y136.918 E6.34882
G1 X166.5 Y137.575 E6.37067
G1 X166.499 Y143.66 E6.57306
G1 X166.487 Y144.423 E6.59844
G1 X166.429 Y145.396 E6.63086
G1 X166.283 Y146.359 E6.66326
G1 X166.052 Y147.305 E6.69565
G1 X165.739 Y148.228 E6.72806
G1 X165.347 Y149.119 E6.76044
G1 X164.895 Y149.942 E6.79167
G1 X164.333 Y150.779 E6.8252
G1 X163.767 Y151.482 E6.85522
G1 X163.041 Y152.235 E6.89001
G1 X162.304 Y152.871 E6.92239
G1 X161.514 Y153.441 E6.95479
G1 X160.738 Y153.904 E6.98484
G1 X159.797 Y154.357 E7.01958
G1 X158.886 Y154.698 E7.05193
G1 X157.954 Y154.958 E7.08411
G1 X157.232 Y155.098 E7.10857
G1 X155.065 Y155.446 E7.18157
G1 X152.556 Y155.914 E7.26646
G1 X150.106 Y156.443 E7.34983
G1 X147.689 Y157.039 E7.43262
G1 X145.209 Y157.722 E7.51818
G1 X142.854 Y158.446 E7.60012
G1 X140.421 Y159.269 E7.68555
G1 X138.074 Y160.137 E7.76878
G1 X135.772 Y161.064 E7.85132
G1 X133.448 Y162.077 E7.93564
G1 X130.596 Y163.423 E8.04053
G1 X129.696 Y163.796 E8.07293
G1 X128.768 Y164.088 E8.10529
G1 X127.832 Y164.296 E8.13718
G1 X126.944 Y164.446 E8.16714
G1 X126.489 Y164.509 E8.18241
G1 X125.524 Y164.599 E8.21465
G1 X124.714 Y164.609 E8.24159
G1 X124.193 Y164.596 E8.25893
G1 X122.41 Y164.523 E8.31828
G1 X119.91 Y164.491 E8.40144
G1 X117.389 Y164.531 E8.48529
G1 X116.152 Y164.584 E8.52648
G1 X115.285 Y164.608 E8.55532
G1 X114.714 Y164.609 E8.57431
G1 X114.193 Y164.596 E8.59165
G1 X112.41 Y164.523 E8.651
G1 X109.91 Y164.491 E8.73416
G1 X107.389 Y164.531 E8.81802
G1 X106.16 Y164.584 E8.85893
G1 X105.297 Y164.608 E8.88765
G1 X104.327 Y164.59 E8.91991
G1 X103.46 Y164.502 E8.9489
G1 X102.585 Y164.372 E8.97832
G1 X102.145 Y164.295 E8.99318
G1 X101.263 Y164.1 E9.02322
G1 X100.27 Y163.786 E9.05786
G1 X99.531 Y163.482 E9.08444
G1 X98.98 Y163.232 E9.10456
G1 X96.539 Y162.165 E9.19317
G1 X94.182 Y161.214 E9.2777
G1 X91.837 Y160.344 E9.36089
G1 X89.452 Y159.534 E9.44467
G1 X87.059 Y158.796 E9.52796
G1 X84.657 Y158.129 E9.61087
G1 X82.177 Y157.517 E9.69583
G1 X79.698 Y156.978 E9.78021
G1 X77.288 Y156.524 E9.86178
G1 X74.773 Y156.125 E9.94647
G1 X72.261 Y155.799 E10.03072
G1 X69.782 Y155.548 E10.1136
G1 X67.289 Y155.366 E10.19673
G1 X64.039 Y155.226 E10.30493
G1 X63.032 Y155.135 E10.33856
G1 X62.075 Y154.961 E10.37091
G1 X61.135 Y154.703 E10.40333
G1 X60.223 Y154.365 E10.43568
G1 X59.406 Y153.979 E10.46574
G1 X58.504 Y153.449 E10.50053
G1 X57.713 Y152.882 E10.5329
G1 X56.975 Y152.246 E10.56531
G1 X56.296 Y151.549 E10.59767
G1 X55.701 Y150.822 E10.62892
G1 X55.135 Y149.986 E10.66249
G1 X54.664 Y149.135 E10.69484
G1 X54.269 Y148.244 E10.72726
G1 X53.955 Y147.323 E10.75962
G1 X53.723 Y146.377 E10.79202
G1 X53.575 Y145.418 E10.8243
G1 X53.517 Y144.593 E10.8518
G1 X53.5 Y143.903 E10.87476
G1 X53.501 Y137.765 E11.07891
G1 X53.515 Y137.02 E11.10369
G1 X53.577 Y136.051 E11.13599
G1 X53.711 Y135.158 E11.16602
G1 X53.994 Y134.023 E11.20493
G1 X54.535 Y132.286 E11.26544
G1 X55.235 Y129.883 E11.34868
G1 X55.871 Y127.437 E11.43274
G1 X56.432 Y125.002 E11.51585
G1 X56.937 Y122.49 E11.60107
G1 X57.359 Y120.03 E11.68409
G1 X57.707 Y117.586 E11.7662
G1 X57.995 Y115.048 E11.85115
G1 X58.212 Y112.53 E11.93521
G1 X58.351 Y110.07 E12.01716
G1 X58.424 Y107.506 E12.10248
G1 X58.424 Y104.994 E12.18603
G1 X58.353 Y102.482 E12.26961
G1 X58.213 Y99.998 E12.35236
G1 X57.997 Y97.427 E12.43817
G1 X57.721 Y95.001 E12.51938
G1 X57.359 Y92.454 E12.60495
G1 X56.935 Y89.971 E12.68873
G1 X56.452 Y87.565 E12.77035
G1 X55.874 Y85.048 E12.85624
G1 X55.241 Y82.617 E12.93979
G1 X54.538 Y80.198 E13.02358
G1 X54.009 Y78.517 E13.08219
G1 X53.768 Y77.611 E13.11337
G1 X53.596 Y76.612 E13.14709
G1 X53.515 Y75.572 E13.18178
G1 X53.5 Y74.915 E13.20364
G1 X53.501 Y68.754 E13.40856
G1 X53.513 Y68.053 E13.43188
G1 X53.573 Y67.08 E13.4643
G1 X53.72 Y66.119 E13.49663
G1 X53.951 Y65.171 E13.52909
G1 X54.253 Y64.282 E13.56032
G1 X54.66 Y63.36 E13.59384
G1 X55.131 Y62.508 E13.62622
G1 X55.676 Y61.699 E13.65866
G1 X56.267 Y60.971 E13.68985
G1 X56.969 Y60.246 E13.72341
G0 F6000 X57.231 Y60.549
G1 F1200 X57.941 Y59.935 E13.75463
G1 X58.702 Y59.386 E13.78584
G1 X59.51 Y58.907 E13.81708
G1 X60.324 Y58.516 E13.84712
G1 X61.241 Y58.171 E13.87971
G1 X62.437 Y57.859 E13.92082
G1 X64.067 Y57.534 E13.9761
G1 X66.562 Y56.989 E14.06104
G1 X69.013 Y56.383 E14.14501
G1 X71.434 Y55.707 E14.22862
G1 X73.897 Y54.946 E14.31436
G1 X76.275 Y54.137 E14.3979
G1 X78.659 Y53.249 E14.48252
G1 X80.982 Y52.309 E14.56586
G1 X83.293 Y51.295 E14.6498
G1 X85.58 Y50.217 E14.73389
G1 X88.182 Y48.892 E14.83101
G1 X89.012 Y48.458 E14.86216
G1 X89.424 Y48.256 E14.87743
G1 X90.251 Y47.895 E14.90744
G1 X91.178 Y47.586 E14.93994
G1 X92.225 Y47.345 E14.97567
G1 X93.111 Y47.196 E15.00555
G1 X93.549 Y47.135 E15.02026
G1 X94.481 Y47.047 E15.0514
G1 X95.276 Y47.037 E15.07784
G1 X95.791 Y47.05 E15.09498
G1 X97.574 Y47.123 E15.15433
G1 X100.091 Y47.155 E15.23805
G1 X102.629 Y47.115 E15.32248
G1 X103.859 Y47.062 E15.36343
G1 X104.715 Y47.038 E15.39191
G1 X105.275 Y47.037 E15.41053
G1 X105.791 Y47.05 E15.4277
G1 X107.574 Y47.123 E15.48705
G1 X110.091 Y47.155 E15.57078
G1 X112.629 Y47.115 E15.6552
G1 X113.859 Y47.062 E15.69615
G1 X114.715 Y47.038 E15.72463
G1 X115.275 Y47.037 E15.74326
G1 X115.791 Y47.05 E15.76042
G1 X117.574 Y47.123 E15.81978
G1 X120.091 Y47.155 E15.9035
G1 X122.629 Y47.115 E15.98792
G1 X123.859 Y47.062 E16.02887
G1 X124.715 Y47.038 E16.05735
G1 X125.275 Y47.037 E16.07598
G1 X125.791 Y47.05 E16.09315
G1 X127.574 Y47.123 E16.1525
G1 X130.091 Y47.155 E16.23622
G1 X132.629 Y47.115 E16.32065
G1 X133.851 Y47.062 E16.36133
G1 X134.696 Y47.038 E16.38944
G1 X135.633 Y47.054 E16.42061
G1 X136.481 Y47.14 E16.44896
G1 X137.318 Y47.264 E16.47711
G1 X137.73 Y47.335 E16.49101
G1 X138.648 Y47.536 E16.52227
G1 X139.51 Y47.806 E16.55231
G1 X140.573 Y48.256 E16.5907
G1 X141.042 Y48.485 E16.60806
G1 X141.733 Y48.846 E16.63399
G1 X142.615 Y49.369 E16.6681
G1 X144.855 Y50.851 E16.75743
G1 X147.003 Y52.186 E16.84155
G1 X149.221 Y53.479 E16.92694
G1 X151.41 Y54.673 E17.00987
G1 X153.673 Y55.826 E17.09435
G1 X155.927 Y56.896 E17.17733
G1 X158.309 Y57.944 E17.26389
G1 X159.578 Y58.472 E17.3096
G1 X160.427 Y58.872 E17.34082
G1 X161.237 Y59.345 E17.37201
G1 X162.003 Y59.888 E17.40324
G1 X162.717 Y60.497 E17.43446
G1 X163.375 Y61.167 E17.46569
G1 X163.97 Y61.892 E17.49688
G1 X164.5 Y62.667 E17.52811
G1 X164.959 Y63.486 E17.55934
G1 X165.343 Y64.341 E17.59051
G1 X165.65 Y65.228 E17.62173
G1 X165.878 Y66.139 E17.65297
G1 X166.024 Y67.066 E17.68418
G1 X166.087 Y67.959 E17.71395
G1 X166.1 Y68.575 E17.73445
G1 X166.099 Y74.68 E17.9375
G1 X166.087 Y75.424 E17.96225
G1 X166.03 Y76.36 E17.99344
G1 X165.897 Y77.253 E18.02347
G1 X165.625 Y78.347 E18.06096
G1 X165.083 Y80.086 E18.12154
G1 X164.384 Y82.488 E18.20475
G1 X163.737 Y84.972 E18.29012
G1 X163.178 Y87.398 E18.37293
G1 X162.671 Y89.921 E18.45852
G1 X162.247 Y92.392 E18.54191
G1 X161.897 Y94.848 E18.62442
G1 X161.606 Y97.408 E18.71011
G1 X161.39 Y99.926 E18.79417
G1 X161.249 Y102.409 E18.87689
G1 X161.176 Y104.973 E18.9622
G1 X161.176 Y107.496 E19.04612
G1 X161.247 Y110.019 E19.13007
G1 X161.388 Y112.526 E19.21358
G1 X161.605 Y115.097 E19.2994
G1 X161.887 Y117.579 E19.38248
G1 X162.238 Y120.052 E19.46556
G1 X162.668 Y122.569 E19.55048
G1 X163.158 Y125.015 E19.63345
G1 X163.733 Y127.521 E19.71897
G1 X164.366 Y129.953 E19.80255
G1 X165.084 Y132.426 E19.8882
G1 X165.603 Y134.072 E19.94561
G1 X165.845 Y134.98 E19.97686
G1 X166.005 Y135.906 E20.00812
G1 X166.085 Y136.927 E20.04218
G1 X166.1 Y137.575 E20.06374
G1 X166.099 Y143.654 E20.26593
G1 X166.088 Y144.4 E20.29074
G1 X166.033 Y145.337 E20.32196
G1 X165.894 Y146.265 E20.35317
G1 X165.673 Y147.177 E20.38438
G1 X165.373 Y148.067 E20.41562
G1 X164.996 Y148.926 E20.44682
G1 X164.544 Y149.749 E20.47805
G1 X164.021 Y150.528 E20.50926
G1 X163.455 Y151.231 E20.53927
G1 X162.779 Y151.933 E20.57169
G1 X162.07 Y152.547 E20.60288
G1 X161.309 Y153.097 E20.63411
G1 X160.533 Y153.56 E20.66417
G1 X159.656 Y153.983 E20.69655
G1 X158.778 Y154.313 E20.72775
G1 X157.878 Y154.565 E20.75883
G1 X157.169 Y154.703 E20.78286
G1 X155.002 Y155.051 E20.85586
G1 X152.472 Y155.523 E20.94146
G1 X150.022 Y156.052 E21.02482
G1 X147.583 Y156.653 E21.10837
G1 X145.103 Y157.337 E21.19393
G1 X142.726 Y158.067 E21.27664
G1 X140.293 Y158.89 E21.36206
G1 X137.935 Y159.762 E21.44568
G1 X135.612 Y160.697 E21.52897
G1 X133.288 Y161.71 E21.61329
G1 X130.442 Y163.054 E21.71797
G1 X129.575 Y163.415 E21.74921
G1 X128.681 Y163.698 E21.7804
G1 X127.765 Y163.902 E21.81161
G1 X126.889 Y164.05 E21.84116
G1 X126.451 Y164.111 E21.85587
G1 X125.519 Y164.199 E21.887
G1 X124.724 Y164.209 E21.91345
G1 X124.209 Y164.196 E21.93058
G1 X122.426 Y164.123 E21.98994
G1 X119.909 Y164.091 E22.07366
G1 X117.372 Y164.131 E22.15805
G1 X116.141 Y164.184 E22.19903
G1 X115.284 Y164.208 E22.22755
G1 X114.724 Y164.209 E22.24617
G1 X114.209 Y164.196 E22.26331
G1 X112.426 Y164.123 E22.32266
G1 X109.909 Y164.091 E22.40638
G1 X107.372 Y164.131 E22.49077
G1 X106.149 Y164.184 E22.53149
G1 X105.304 Y164.208 E22.5596
G1 X104.367 Y164.192 E22.59077
G1 X103.519 Y164.106 E22.61912
G1 X102.654 Y163.978 E22.64821
G1 X102.231 Y163.904 E22.66249
G1 X101.349 Y163.709 E22.69253
G1 X100.422 Y163.416 E22.72487
G1 X99.696 Y163.118 E22.75097
G1 X99.145 Y162.868 E22.77109
G1 X96.689 Y161.794 E22.86025
G1 X94.332 Y160.843 E22.94478
G1 X91.966 Y159.965 E23.02872
G1 X89.581 Y159.155 E23.1125
G1 X87.177 Y158.414 E23.19617
G1 X84.753 Y157.741 E23.27984
G1 X82.262 Y157.126 E23.36518
G1 X79.783 Y156.587 E23.44956
G1 X77.351 Y156.129 E23.53187
G1 X74.824 Y155.728 E23.61697
G1 X72.312 Y155.402 E23.70122
G1 X69.815 Y155.149 E23.78469
G1 X67.306 Y154.966 E23.86836
G1 X64.056 Y154.826 E23.97656
G1 X63.103 Y154.741 E24.00838
G1 X62.18 Y154.575 E24.03957
G1 X61.274 Y154.328 E24.07081
G1 X60.394 Y154.003 E24.10201
G1 X59.577 Y153.617 E24.13206
G1 X58.737 Y153.124 E24.16446
G1 X57.973 Y152.578 E24.19569
G1 X57.261 Y151.967 E24.2269
G1 X56.606 Y151.296 E24.25808
G1 X56.011 Y150.569 E24.28933
G1 X55.485 Y149.792 E24.32054
G1 X55.029 Y148.972 E24.35174
G1 X54.647 Y148.114 E24.38298
G1 X54.343 Y147.227 E24.41417
G1 X54.118 Y146.316 E24.44538
G1 X53.974 Y145.39 E24.47655
G1 X53.917 Y144.583 E24.50346
G1 X53.9 Y143.903 E24.52608
G1 X53.901 Y137.772 E24.73
G1 X53.914 Y137.045 E24.75418
G1 X53.973 Y136.11 E24.78534
G1 X54.107 Y135.217 E24.81537
G1 X54.376 Y134.142 E24.85223
G1 X54.917 Y132.405 E24.91274
G1 X55.619 Y129.995 E24.99623
G1 X56.258 Y127.538 E25.08067
G1 X56.822 Y125.092 E25.16416
G1 X57.329 Y122.569 E25.24975
G1 X57.753 Y120.098 E25.33314
G1 X58.103 Y117.642 E25.41565
G1 X58.394 Y115.082 E25.50134
G1 X58.61 Y112.564 E25.5854
G1 X58.751 Y110.081 E25.66812
G1 X58.824 Y107.517 E25.75343
G1 X58.824 Y104.994 E25.83735
G1 X58.753 Y102.471 E25.9213
G1 X58.612 Y99.964 E26.00481
G1 X58.395 Y97.393 E26.09063
G1 X58.117 Y94.945 E26.17257
G1 X57.755 Y92.398 E26.25814
G1 X57.329 Y89.904 E26.34229
G1 X56.842 Y87.475 E26.42468
G1 X56.264 Y84.958 E26.51058
G1 X55.628 Y82.516 E26.59451
G1 X54.92 Y80.078 E26.67895
G1 X54.396 Y78.414 E26.73697
G1 X54.155 Y77.508 E26.76815
G1 X53.995 Y76.581 E26.79944
G1 X53.915 Y75.563 E26.83341
G1 X53.9 Y74.915 E26.85496
